!!!!SEGMENT: pl-gd--ee-1638--007-004_marenzio-luca--il-terzo-libro-de-madrigalia-a-sei-voci-stringeami-galatea.krn
!!!cenid: 15xx:845
!!!COM: Marenzio, Luca
!!!COM-rismID: pe30003955
!!!CDT: ~1553-1599/08/22
!!!CNT: Italian
!!!GTL: Il Terzo Libro de madrigalia a sei voci
!!!OTL: Stringeami Galatea
!!!OMV: 004
!!!PDT: 1585
!!!AGN:
!!!SMS-siglum: PL-GD
!!!SMS-shelfmark: Ee 1638
!!!SMS-variant:
!!!SMS-altvar:
!!!SMS-shelfwork: 007-004 G
!!!NIFC-rismSourceID: 990039250
!!!NIFC-islandoraID: pl-gd:57883
!!!URL-pdf-islandora: https://repozytorium.nifc.pl/islandora/object/pl-gd%3A57883/datastream/PDF/view
!!!URL-scan: https://polish.musicsources.pl/pl/lokalizacje/galeria/klocki-introligatorskie/655 @EN{Scan on Polish Music Sources Website} @PL{Skany w portalu Dziedzictwo Muzyki Polskiej w otwartym dostępie}
!!!ONB-nifc: UWAGA: zbiór na stronach: Canto: s. 694-704, Alto: s. 542-552, Tenore: s. 390-400, Basso: s. 237-248, Quinto: s. 85-96, Sesto: s. 3-14. Uwaga: utwory podzielone wg tytułów w spisach treści dostępnych na końcu każdej księgi głosowej.
!!!AIN: 1 alto 1 bass 2 soprn 2 tenor
!!!key: a:aeo
**kern	**text	**kern	**text	**kern	**text	**kern	**text	**kern	**text	**kern	**text
*part6	*part6	*part5	*part5	*part4	*part4	*part3	*part3	*part2	*part2	*part1	*part1
*staff6	*staff6	*staff5	*staff5	*staff4	*staff4	*staff3	*staff3	*staff2	*staff2	*staff1	*staff1
*I"Sesto	*	*I"Quinto	*	*I"Basso	*	*I"Tenore	*	*I"Alto	*	*I"Canto	*
*I'S	*	*I'Q	*	*I'B	*	*I'T	*	*I'A	*	*I'C	*
*Itenor	*	*Isoprn	*	*Ibass	*	*Itenor	*	*Ialto	*	*Isoprn	*
*ICvox	*	*ICvox	*	*ICvox	*	*ICvox	*	*Cvox	*	*ICvox	*
*clefC4	*	*clefC4	*	*clefF4	*	*clefC4	*	*clefC3	*	*clefC1	*
*k[]	*	*k[]	*	*k[]	*	*k[]	*	*k[]	*	*k[]	*
*a:aeo	*	*a:aeo	*	*a:aeo	*	*a:aeo	*	*a:aeo	*	*a:aeo	*
*M2/1	*	*M2/1	*	*M2/1	*	*M2/1	*	*M2/1	*	*M2/1	*
=1-	=1-	=1-	=1-	=1-	=1-	=1-	=1-	=1-	=1-	=1-	=1-
!	!	!	!	!	!	!	!	!	!	!LO:TX:a:B:t=Prestissimo	!
0r	.	0r	.	0r	.	0r	.	1e	Strin-	2r	.
.	.	.	.	.	.	.	.	.	.	1e	Strin-
.	.	.	.	.	.	.	.	2.c/	-ge-	.	.
.	.	.	.	.	.	.	.	.	.	2.a\	-ge-
.	.	.	.	.	.	.	.	8B/	-a-	.	.
.	.	.	.	.	.	.	.	8A/	.	.	.
=2-	=2-	=2-	=2-	=2-	=2-	=2-	=2-	=2-	=2-	=2-	=2-
2r	.	1e	Strin-	1E	Strin-	0r	.	1B	.	.	.
.	.	.	.	.	.	.	.	.	.	8g/	-a-
.	.	.	.	.	.	.	.	.	.	8f#X/	.
1E	STrin-	.	.	.	.	.	.	.	.	2g#X\	.
.	.	2.c\	-ge-	1AA	-gea-	.	.	1A	-mi	1a	-mi
2.A/	-gea-	.	.	.	.	.	.	.	.	.	.
.	.	8B\	-a-	.	.	.	.	.	.	.	.
.	.	8A\	.	.	.	.	.	.	.	.	.
=3-	=3-	=3-	=3-	=3-	=3-	=3-	=3-	=3-	=3-	=3-	=3-
.	.	1B	.	1E	-mi	1e	Strin-	2r	.	0r	.
8G/	.	.	.	.	.	.	.	.	.	.	.
8F#X/	.	.	.	.	.	.	.	.	.	.	.
2G#X/	.	.	.	.	.	.	.	1e	/Strin-	.	.
4A\	-mi	1A	-mi	1r	.	2.c\	-ge-	.	.	.	.
4B\	.	.	.	.	.	.	.	.	.	.	.
4c\	.	.	.	.	.	.	.	2.a\	-ge-	.	.
4d\	.	.	.	.	.	8B\	-a-	.	.	.	.
.	.	.	.	.	.	8A\	.	.	.	.	.
=4-	=4-	=4-	=4-	=4-	=4-	=4-	=4-	=4-	=4-	=4-	=4-
0e	.	2r	.	1E	Strin-	1B	.	.	.	2r	.
.	.	.	.	.	.	.	.	8g#X\	-a-	.	.
.	.	.	.	.	.	.	.	8f#X\	.	.	.
.	.	2B\	Strin-	.	.	.	.	2g#X\	.	1ee	Strin-
.	.	2.c\	-ge-	2.A\	-ge-	2A/	-mi	1a	-mi/	.	.
.	.	.	.	.	.	2r	.	.	.	2.cc\	-ge-
.	.	8B\	-a-	8G\	-a-	.	.	.	.	.	.
.	.	8A\	.	8F\	.	.	.	.	.	.	.
=5-	=5-	=5-	=5-	=5-	=5-	=5-	=5-	=5-	=5-	=5-	=5-
0r	.	1d	.	1G	.	0r	.	1r	.	.	.
.	.	.	.	.	.	.	.	.	.	8b\	-a-
.	.	.	.	.	.	.	.	.	.	8a\	.
.	.	.	.	.	.	.	.	.	.	2b\	.
.	.	4e\	-mi	4C/	-mi	.	.	4r	.	4cc\	-mi
.	.	2c\	Ga-	2F\	Ga-	.	.	2fny\	Ga-	2a\	Ga-
!	!	!	!	!	!	!	!	!LO:SIC:v:t=custos d	!	!	!
.	.	4B\	-la-	4G\	-la-	.	.	4d\	-la-	4gny/	-la-
=6-	=6-	=6-	=6-	=6-	=6-	=6-	=6-	=6-	=6-	=6-	=6-
!	!	!	!	!	!	!	!	!LO:LB:g=original	!	!	!
!	!	!	!	!	!	!	!	!	!	!LO:LB:g=original	!
1r	.	2A/	-te-	2D/	-tea	0r	.	2d\	-te-	2f#X/	-te-
!	!	!LO:SIC:v:t=custos B	!	!	!	!	!	!	!	!	!
.	.	2A/	-a	2D/	Fra-	.	.	2d\	-a	2f#/	-a
!	!	!	!	!LO:SIC:v:t=custos F	!	!	!	!	!	!	!
!	!	!LO:LB:g=original	!	!	!	!	!	!	!	!	!
4r	.	4B\	Fra	4G\	-le	.	.	4d\	Fra-	4g\	Fra-
!	!	!	!	!LO:LB:g=original	!	!	!	!	!	!	!
4A/	Fra	2c\	le	2F\	nu-	.	.	2f\	-le	2a\	-le
4.Fny/	le	.	.	.	.	.	.	.	.	.	.
.	.	4d\	ſue	4D/	-de	.	.	4f\	ſue	4b\	ſue
!LO:SIC:v:t=custos G	!	!	!	!	!	!	!	!	!	!	!
8D/	ſue	.	.	.	.	.	.	.	.	.	.
=7-	=7-	=7-	=7-	=7-	=7-	=7-	=7-	=7-	=7-	=7-	=7-
2.Gny/	nu-	4e\	nu-	4C/	brac-	0r	.	2gny\	nu-	4cc\	nu-
!LO:LB:g=original	!	!	!	!	!	!	!	!	!	!	!
.	.	4d\	-de	4BB/	.	.	.	.	.	4dd\	-de
.	.	2c\	brac-	4.C/	.	.	.	4e\	-de	1ee	brac-
2E/	-de	.	.	.	.	.	.	2a\	brac-	.	.
.	.	.	.	8D/	.	.	.	.	.	.	.
.	.	1B	-cia	1E	.	.	.	.	.	.	.
4.e\	brac-	.	.	.	.	.	.	8g\	.	.	.
.	.	.	.	.	.	.	.	8f#X\	.	.	.
.	.	.	.	.	.	.	.	2g#X\	.	2b\	-cia
16d\	.	.	.	.	.	.	.	.	.	.	.
16c\	.	.	.	.	.	.	.	.	.	.	.
4B\	.	.	.	.	.	.	.	.	.	.	.
=8-	=8-	=8-	=8-	=8-	=8-	=8-	=8-	=8-	=8-	=8-	=8-
4.c\	-cia	2r	.	1AA	-cia	2r	.	2a\	-cia	2r	.
8d\	.	.	.	.	.	.	.	.	.	.	.
2e\	.	2c\	Com'-	.	.	2G/	Com'	4r	.	2a\	Com'-
.	.	.	.	.	.	.	.	4e\	Com'	.	.
1r	.	2d\	-he-	1r	.	2F/	he-	2gny\	he-	2b\	-hed-
.	.	2f\	-dra	.	.	2E/	-dra	2a\	-dra	2cc\	-ra
=9-	=9-	=9-	=9-	=9-	=9-	=9-	=9-	=9-	=9-	=9-	=9-
0r	.	2e\	ſuol	0r	.	2c\	ſuol	2g\	ſuol	2cc\	ſuol
.	.	4d\	che'l	.	.	4d\	che'l	4fny\	che'l	4a\	che'l
.	.	2d\	ca-	.	.	2B-X\	ca-	2f\	ca-	2b-X\	ca-
!	!	!	!	!	!	!LO:SIC:v:t=custos g	!	!LO:SIC:v:t=custos d	!	!	!
.	.	4c\	-ro	.	.	4F/	-ro	4f\	-ro	4a\	-ro
!	!	!	!	!	!	!	!	!LO:LB:g=original	!	!	!
!	!	!	!	!	!	!LO:LB:g=original	!	!	!	!	!
.	.	4B-X\	tron-	.	.	4G/	tron-	4d\	tron-	4g/	tron-
!	!	!	!	!	!	!	!	!	!	!LO:SIC:v:t=custos f	!
.	.	4A/	-co	.	.	4D/	-c'al-	4d\	-c'al-	4fny/	-c'al-
=10-	=10-	=10-	=10-	=10-	=10-	=10-	=10-	=10-	=10-	=10-	=10-
!	!	!	!	!	!	!	!	!	!	!LO:LB:g=original	!
1r	.	1r	.	1r	.	2A/	-lac-	4d\	-la-	4f/	-lac-
.	.	.	.	.	.	.	.	8c#X/	.	8e/	.
.	.	.	.	.	.	.	.	8B/	.	8d/	.
.	.	.	.	.	.	2A/	-cia	4c#X/	.	4e/	.
.	.	.	.	.	.	.	.	4c#/	-cia	4e/	-cia
4r	.	4r	.	4r	.	1r	.	4r	.	4r	.
2d\	E	2A/	E	2D/	E	.	.	2f\	e	2dd\	E
!	!	!LO:SIC:v:t=custos A	!	!	!	!	!	!	!	!	!
4d\	col	4A/	col	4D/	col	.	.	4f\	col	4a\	co'l
=11-	=11-	=11-	=11-	=11-	=11-	=11-	=11-	=11-	=11-	=11-	=11-
!	!	!LO:LB:g=original	!	!	!	!	!	!	!	!	!
3.d\	net-	3.A/	net-	3.D/	net-	0r	.	3.f#X\	net-	3.a\	net-
6d\	-tar	6A/	-tar	6D/	-tar	.	.	6f#\	-tar	6a\	-tar
3d\	de	3F#X/	de	3D/	de	.	.	3f#\	de	3a\	de
1d#X	ba-	1Bny	ba-	1BB	ba-	.	.	1f#	ba-	1bny	ba-
=12-	=12-	=12-	=12-	=12-	=12-	=12-	=12-	=12-	=12-	=12-	=12-
!	!	!	!	!	!	!	!	!LO:LB:g=original	!	!	!
1d#X	-ci	1B	-ci	1BB	-ci	2r	.	1f#X	-ci	1b	-ci
.	.	.	.	.	.	4r	.	.	.	.	.
.	.	.	.	.	.	2Bny\	E	.	.	.	.
!	!	!	!	!LO:SIC:v:t=custos D	!	!	!	!	!	!	!
4r	.	2G/	E	2E\	E	.	.	1r	.	1r	.
!LO:SIC:v:t=custos f	!	!	!	!	!	!	!	!	!	!	!
4e\	E-	.	.	.	.	4.c\	ra-	.	.	.	.
!LO:LB:g=original	!	!	!	!	!	!	!	!	!	!	!
!	!	!	!	!LO:LB:g=original	!	!	!	!	!	!	!
4.f\	-ra-	4.d\	ra-	4.D/	ra-	.	.	.	.	.	.
.	.	.	.	.	.	8c\	-pi-	.	.	.	.
.	.	.	.	.	.	4B\	-di	.	.	.	.
8f\	-pi-	8d\	-pi-	8D/	-pi-	.	.	.	.	.	.
=13-	=13-	=13-	=13-	=13-	=13-	=13-	=13-	=13-	=13-	=13-	=13-
4.e\	-di e	4.G/	-di e	4.C/	-di e	4r	.	1r	.	1r	.
.	.	.	.	.	.	4.G/	e	.	.	.	.
8dny\	te-	8G/	te-	8BB/	te-	.	.	.	.	.	.
2c\	-na-	2A/	-na-	2AA/	-na-	.	.	.	.	.	.
.	.	.	.	.	.	8F#X/	te-	.	.	.	.
.	.	.	.	.	.	4F#/	-na-	.	.	.	.
1B	-ci	2D/	-ci	1GG	-ci	2G/	-ci	4r	.	4r	.
.	.	.	.	.	.	.	.	2d\	E	2g/	E
.	.	4G/	E	.	.	4B\	E	.	.	.	.
!	!	!	!	!	!	!	!	!LO:SIC:v:t=custos d	!	!	!
.	.	4G/	co'l	.	.	4B\	co'l	4d\	co'l	4g/	co'l
=14-	=14-	=14-	=14-	=14-	=14-	=14-	=14-	=14-	=14-	=14-	=14-
!	!	!	!	!	!	!LO:TX:a:t=uwaga zmiana na 3	!	!LO:TX:a:t=ponowna zmiana na 3	!	!	!
0r	.	3.G/	net-	0r	.	3.B\	net-	3.d\	net-	3.g/	net-
.	.	6G/	-tar	.	.	6B\	-tar	6d\	-tar	6g/	-tar
.	.	3G/	de	.	.	3B\	de	3d\	de	3g/	de
!	!	!LO:SIC:v:t=custos E	!	!	!	!	!	!	!	!	!
.	.	1E	ba-	.	.	1B	ba-	1e	ba-	1g#X	ba-
=15-	=15-	=15-	=15-	=15-	=15-	=15-	=15-	=15-	=15-	=15-	=15-
!	!	!LO:LB:g=original	!	!	!	!	!	!	!	!	!
!	!	!	!	!	!	!LO:LB:g=original	!	!	!	!	!
!	!	!	!	!	!	!	!	!	!	!LO:LB:g=original	!
2r	.	1E	-ci E	0r	.	1B	-ci	1e	-ci	1g#	-ci
4r	.	.	.	.	.	.	.	.	.	.	.
2e\	E	.	.	.	.	.	.	.	.	.	.
.	.	2A/	ra-	.	.	4r	.	2c/	E	2a\	E
4.f\	ra-	.	.	.	.	2c\	E	.	.	.	.
.	.	4.G/	-pi-	.	.	.	.	4.g\	ra-	4.b\	ra-
8e\	-pi-	.	.	.	.	.	.	.	.	.	.
4e\	-di	.	.	.	.	4.B\	ra-	.	.	.	.
.	.	8G/	-di	.	.	.	.	8g\	-pi-	8b\	-pi-
=16-	=16-	=16-	=16-	=16-	=16-	=16-	=16-	=16-	=16-	=16-	=16-
4r	.	4.Fny/	e	1r	.	.	.	4.a\	-di e	4.cc\	-de e
.	.	.	.	.	.	8A/	-pi-	.	.	.	.
4.c\	e	.	.	.	.	4.A/	-de e	.	.	.	.
.	.	8E/	te-	.	.	.	.	8g\	te-	8cc\	te-
.	.	2D/	-na-	.	.	.	.	2f\	-na-	2dd\	-na-
8B\	te-	.	.	.	.	8G/	te-	.	.	.	.
4B\	-na-	.	.	.	.	4Fny/	-na-	.	.	.	.
4c\	-ci	4C/	-ci	2E\	E	2G/	-ci	4e\	-ci	2gny/	-ci
4G/	E	4E/	E	.	.	.	.	2g\	E	.	.
4.A/	ra-	4.F/	ra-	4.D/	ra-	2r	.	.	.	2r	.
.	.	.	.	.	.	.	.	4.f\	ra-	.	.
8B\	-pi-	8F/	-pi-	8D/	-pi-	.	.	.	.	.	.
=17-	=17-	=17-	=17-	=17-	=17-	=17-	=17-	=17-	=17-	=17-	=17-
4.c\	-di e	4.G/	-di e	4.C/	-di e	4r	.	.	.	1r	.
.	.	.	.	.	.	.	.	8e\	-pi-	.	.
.	.	.	.	.	.	4.G/	e	4.e\	-di e	.	.
!LO:SIC:v:t=custos e	!	!	!	!	!	!	!	!	!	!	!
8d\	te-	8G/	te-	8BB/	te-	.	.	.	.	.	.
4e\	-na-	2C/	-na-	2AA/	-na-	.	.	.	.	.	.
.	.	.	.	.	.	8F#X/	te-	8d\	te-	.	.
!LO:LB:g=original	!	!	!	!	!	!	!	!	!	!	!
4A/	-ci	.	.	.	.	4F#/	-na-	4c/	-na-	.	.
2r	.	2D/	-ci	2GG/	-ci	1.G	-ci	1B	-ci	2r	.
2d\	Tal	2r	.	2G\	Tal	.	.	.	.	4r	.
.	.	.	.	.	.	.	.	.	.	4dd\	Tal
=18-	=18-	=18-	=18-	=18-	=18-	=18-	=18-	=18-	=18-	=18-	=18-
4.c\	gio-	2r	.	4.C/	gio-	.	.	1g	Tal	4.ee\	gio-
8d\	-ia	.	.	8BB/	-ia	.	.	.	.	8dd\	-ia
4e\	mi	4r	.	4C/	mi	4r	.	.	.	4cc\	mi
!	!	!	!	!LO:SIC:v:t=custos C	!	!	!	!	!	!	!
4d\	por-	4G/	Tal	4G\	por-	4d\	Tal	.	.	4b\	por-
!	!	!	!	!LO:LB:g=original	!	!	!	!	!	!	!
2c\	-gea	4.c\	gio-	2C/	-ge-	4.e\	gio-	4.g\	gio-	2cc\	-ge-
!	!	!LO:SIC:v:t=custos e	!	!	!	!	!	!LO:SIC:v:t=custos g	!	!	!
.	.	8d\	-ia	.	.	8d\	-ia	8g\	-ia	.	.
!	!	!LO:LB:g=original	!	!	!	!	!	!	!	!	!
!	!	!	!	!	!	!	!	!LO:LB:g=original	!	!	!
4c\	/Tal	4e\	mi	4C/	-a	4c\	mi	4g\	mi	4g\	-a
4G/	gio-	4d\	per-	4G\	Tal	4B\	por-	4g\	por-	4b\	Tal
=19-	=19-	=19-	=19-	=19-	=19-	=19-	=19-	=19-	=19-	=19-	=19-
!	!	!	!	!	!	!LO:SIC:v:t=custos G	!	!	!	!	!
4.c\	-ia	2c\	-ge-	4.C/	gio-	2c\	-ge-	1g	-ge-	4.ee\	gio-
!	!	!	!	!	!	!	!	!	!	!LO:SIC:v:t=custos cc	!
8d\	mi	.	.	8BB/	-ia	.	.	.	.	8dd\	-ia
!	!	!	!	!	!	!LO:LB:g=original	!	!	!	!	!
!	!	!	!	!	!	!	!	!	!	!LO:LB:g=original	!
4e\	por-	4c\	-a	4C/	mi	4G/	-a	.	.	4cc\	mi
4d\	-ge-	4G/	/Tal	4G\	por-	4B\	/Tal	.	.	4b\	por-
2c\	.	4.c\	gio-	2.C/	-ge-	4.e\	gio-	1g	-a	4cc\	-ge-
.	.	.	.	.	.	.	.	.	.	4g/	-a
.	.	8d\	-ia	.	.	8d\	-ia	.	.	.	.
2G/	-a/	4e\	mi	.	.	4c\	mi	.	.	2r	.
.	.	4d\	per-	4GG/	-a	4B\	por-	.	.	.	.
=20-	=20-	=20-	=20-	=20-	=20-	=20-	=20-	=20-	=20-	=20-	=20-
4.c\	Ch'e	2c\	-ge-	0r	.	4c\	-ge-	2r	.	4.ee\	Ch'e
.	.	.	.	.	.	4e\	-a/	.	.	.	.
8A/	.	.	.	.	.	.	.	.	.	8cc\	.
4B\	.	2G/	-a/	.	.	4.d\	Ch'e	4.g\	Ch'e	4dd\	.
!LO:SIC:v:t=custos c	!	!	!	!	!	!	!	!	!	!	!
4G/	bro	.	.	.	.	.	.	.	.	4b\	bro
.	.	.	.	.	.	8B\	.	8d\	.	.	.
4.c\	CH;e	1r	.	.	.	4c\	.	4e\	.	4.ee\	Ch'e
.	.	.	.	.	.	4A\	bro	4c/	bro-	.	.
!LO:LB:g=original	!	!	!	!	!	!	!	!	!	!	!
8A/	.	.	.	.	.	.	.	.	.	8cc\	.
4B\	.	.	.	.	.	4.d\	Ch'e	4.g\	-Ch'e	4dd\	.
4G/	bro	.	.	.	.	.	.	.	.	4b\	bro
.	.	.	.	.	.	8B\	.	8d\	.	.	.
=21-	=21-	=21-	=21-	=21-	=21-	=21-	=21-	=21-	=21-	=21-	=21-
0r	.	2r	.	0r	.	4c\	.	4e\	.	2r	.
.	.	.	.	.	.	4A\	bro	4c/	bro	.	.
.	.	4r	.	.	.	4r	.	4r	.	4r	.
.	.	4c\	de	.	.	4A/	da	4e\	da	4a\	da
.	.	4c\	la	.	.	4A/	la	4e\	la	4a\	la
.	.	4d\	dol-	.	.	4G/	dol-	4g\	dol-	4b\	dol-
.	.	1f\	-cez-	.	.	1F/	-cez-	1a\	-cez-	1cc\	-cez-
=22-	=22-	=22-	=22-	=22-	=22-	=22-	=22-	=22-	=22-	=22-	=22-
1r	.	.	.	1r	.	.	.	.	.	.	.
!	!	!	!	!	!	!LO:SIC:v:t=custos A	!	!	!	!	!
!	!	!	!	!	!	!	!	!LO:LB:g=original	!	!	!
.	.	2c\	-za	.	.	2F/	-za	2f\	-za	2a\	-za
!	!	!	!	!	!	!LO:LB:g=original	!	!	!	!	!
4r	.	4r	.	4r	.	1r	.	1r	.	4r	.
4e\	da	4c\	de	4C/	da	.	.	.	.	4g/	da
4e\	la	4c\	la	4C/	la	.	.	.	.	4g/	la
!	!	!	!	!	!	!	!	!	!	!LO:SIC:v:t=custos e	!
4d\	dol-	4A\	dol-	4D/	dol-	.	.	.	.	4f/	dol-
=23-	=23-	=23-	=23-	=23-	=23-	=23-	=23-	=23-	=23-	=23-	=23-
!	!	!LO:SIC:v:t=custos G	!	!	!	!	!	!	!	!	!
!	!	!	!	!	!	!	!	!	!	!LO:LB:g=original	!
1B	-cez-	1G#X	-cez-	1E	-cez-	1r	.	1r	.	1e	-cez-
!	!	!LO:LB:g=original	!	!	!	!	!	!	!	!	!
4B\	-za	4G#/	-za	4E\	-za	2r	.	4r	.	2e/	-za
4.c#X\	Heb-	4.A/	Heb-	4.AA/	Heb-	.	.	4.e\	Heb-	.	.
.	.	.	.	.	.	4r	.	.	.	4r	.
!	!	!	!	!	!	!	!	!LO:SIC:v:t=custos e	!	!	!
8c#\	-b'in	8A/	-b'in	8AA/	-b'in	.	.	8e\	-b'in	.	.
!	!	!	!	!LO:SIC:v:t=custos D	!	!	!	!	!	!	!
4c#\	quel	4E/	quel	4AA/	quel	4.A/	Heb-	4e\	quel	4.a\	Heb-
=24-	=24-	=24-	=24-	=24-	=24-	=24-	=24-	=24-	=24-	=24-	=24-
!	!	!	!	!LO:LB:g=original	!	!	!	!	!	!	!
2d\	pun-	2D/	pun-	2D/	pun-	.	.	2f#X\	pun-	.	.
.	.	.	.	.	.	8A/	-b'in	.	.	8a\	-b'in
.	.	.	.	.	.	4A/	quel	.	.	4a\	quel
2d\	-to	2D/	-to	2GG/	-to	2G/	pun-	4g\	-to	2b\	pun-
.	.	.	.	.	.	.	.	4.g\	Heb-	.	.
4e\	di	1r	.	4C/	di	1G	-to	.	.	2cc\	-to
.	.	.	.	.	.	.	.	8g\	-b'in	.	.
4d\	mo-	.	.	4D\	mo-	.	.	4f#\	quel	.	.
4c\	-rir	.	.	4E\	-rir	.	.	2e\	pun-	4g\	di
!LO:SIC:v:t=custos B	!	!	!	!	!	!	!	!	!	!	!
4c\	va-	.	.	4F\	va-	.	.	.	.	4a\	mo-
=25-	=25-	=25-	=25-	=25-	=25-	=25-	=25-	=25-	=25-	=25-	=25-
!LO:LB:g=original	!	!	!	!	!	!	!	!	!	!	!
1B	-ghez-	4G/	di	1G	-ghez-	1r	.	2d\	-to	4b\	-rir
.	.	4A\	mo-	.	.	.	.	.	.	4cc\	va-
.	.	4B\	-rir	.	.	.	.	4d\	di	2dd\	-ghez-
.	.	4c\	va-	.	.	.	.	4e\	mo-	.	.
1A	-za	2d\	-ghez-	1D	-za	4D/	di	4fny\	-rir	2dd\	-za
.	.	.	.	.	.	4E/	mo-	4g\	va-	.	.
.	.	2D/	-za	.	.	4F/	-rir	2.a\	-ghez-	4a\	di
.	.	.	.	.	.	4G/	va-	.	.	4b\	mo-
=26-	=26-	=26-	=26-	=26-	=26-	=26-	=26-	=26-	=26-	=26-	=26-
1r	.	2r	.	4AA/	di	2A/	-ghez-	.	.	4cc\	-rir
.	.	.	.	4BB/	mo-	.	.	8g\	.	4dd\	va-
.	.	.	.	.	.	.	.	8f\	.	.	.
.	.	4E/	di	4C/	-rir	2G/	-za	4e\	.	2.ee\	-ghez-
.	.	4F/	mo-	4D/	va-	.	.	8d\	.	.	.
.	.	.	.	.	.	.	.	8c/	.	.	.
4E/	di	4G/	-rir	0E	-ghez-	2r	.	1B	.	.	.
4F/	mo-	4A/	va-	.	.	.	.	.	.	8dd\	.
!	!	!	!	!	!	!	!	!	!	!LO:SIC:v:t=custos b	!
.	.	.	.	.	.	.	.	.	.	8cc\	.
!	!	!	!	!	!	!	!	!	!	!LO:LB:g=original	!
4G/	-rir	2B\	-ghez-	.	.	4E/	di	.	.	2.b\	.
4A/	va-	.	.	.	.	4F/	mo-	.	.	.	.
=27-	=27-	=27-	=27-	=27-	=27-	=27-	=27-	=27-	=27-	=27-	=27-
4B\	-ghez-	1%5E	-za.	.	.	4G/	-rir	1%5e	-za.	.	.
4c\	.	.	.	.	.	4A/	va-	.	.	2a\	.
2B\	.	.	.	.	.	2B\	-ghez-	.	.	.	.
.	.	.	.	.	.	.	.	.	.	4g#X/	.
00A	-za.	.	.	00AA	-za.	00c#X	-za.	.	.	00a	-za.
=28-	=28-	=28-	=28-	=28-	=28-	=28-	=28-	=28-	=28-	=28-	=28-
.	.	.	.	.	.	.	.	.	.	.	.
=29-	=29-	=29-	=29-	=29-	=29-	=29-	=29-	=29-	=29-	=29-	=29-
.	.	.	.	.	.	.	.	.	.	.	.
1r	.	1r	.	1r	.	1r	.	1r	.	1r	.
=-	=-	=-	=-	=-	=-	=-	=-	=-	=-	=-	=-
*-	*-	*-	*-	*-	*-	*-	*-	*-	*-	*-	*-
!!!system-decoration: s1,s2,s3,s4,s5,s6
!!!ENC: Andrzej Gręziak
!!!END: 2022-06-12
!!!ENC: Urszula Świątek
!!!END: 2022-07-22
!!!YEC: Copyright 2022 Narodowy Instytut Fryderyka Chopina (https://polishscores.org)
!!!YEM: Licence CC BY 4.0 (https://creativecommons.org/licenses/by/4.0)
